X: 1
T: The Ghost
R: three-two
M: 3/2
L: 1/8
K: Fmaj
"Gm"G,3 D /D/E/D "F"C3 D F2| "Gm"G,3 G, G2 "C"E3 DCD|"Gm"G,3 D /D/E/D "F"C3 D F2| "Gm"G3 D F2 "C"E3 D CD|
"Gm"G,3 D /D/E/D "F"C3 D F2| "Gm"G,3 G, G2 "C"E3 D C2| "Bb"D3 B, G,2 "C"C3 F E2 |"Bb"D3 C G,2 "C"C6:|
"D"D3 B A2 "Gm"G6| "C"c3 G B2 "F"A3 G F2 | "D#"G3 _E C2 "F"F3 B A2| "D#"G3 _E C2 "F"F6|
"D"D3 B A2 "Gm"G6| "C"c3 G B2 "F"A3 G F2 | "D#"G3 _E C2 "F"F3 B A2| "D#"G3 _E C "F"D3 C D2||

Transposed with chords
